!!!COM: Martinů, Bohuslav (Jan)
!!!OTL: [T506_Mau-w11p23-24m61-69]
**kern	**dynam	**kern	**dynam	**kern	**dynam	**kern	**dynam
*grp:A	*	*grp:A	*	*grp:B	*	*grp:B	*
*part4	*part4	*part3	*part3	*part2	*part2	*part1	*part1
*staff4	*	*staff3	*	*staff2	*	*staff1	*
*I"Violoncello	*	*I"Viola	*	*I"Violin II	*	*I"Violin I	*
*I'Vc.	*	*I'Vla.	*	*I'Vln. II	*	*I'Vln. I	*
*ICstr	*	*ICstr	*	*ICstr	*	*ICstr	*
*Icello	*	*Iviola	*	*Ivioln	*	*Ivioln	*
*clefF4	*	*clefG2	*	*clefG2	*	*clefG2	*
*k[]	*	*k[]	*	*k[]	*	*k[]	*
*C:	*	*C:	*	*C:	*	*C:	*
*M5/4	*	*M5/4	*	*M5/4	*	*M5/4	*
=61	=61	=61	=61	=61	=61	=61	=61
!	!	!	!	!	!	!LO:TX:a:t=[[quarter]=92]	!LO:DY:t= %s dolce
4r	.	4r	.	2ryy	4ryy	2.ryy	4ryy
!	!LO:DY:t= %s espr. molto	!	!LO:DY:t= %s espr. molto	!	!	!	!
4G~	4ryy	4g~	4ryy	.	.	.	.
4G~	.	4g~	.	4ryy	4ryy	.	.
(8F^L 8A	.	(8f^L 8a	.	4ryy	4ryy	2ryy	.
8GJ)	.	8gJ)	.	.	.	.	.
4G	.	4g	.	4ryy	4ryy	.	.
=62	=62	=62	=62	=62	=62	=62	=62
*M6/4	*	*M6/4	*	*M6/4	*	*M6/4	*
8FL 8A	4ryy	8fL 8a	4ryy	4ryy	4ryy	2.ryy	.
8EJ 8B	.	8eJ 8b	.	.	.	.	.
4D^ 4c	4ryy	4d^ 4cc	4ryy	4ryy	4ryy	.	.
(8EL 8B	.	(8eL 8b	.	4ryy	4ryy	.	.
8GJ)	.	8gJ)	.	.	.	.	.
4F^ 4A	.	4f^ 4a	.	4ryy	4ryy	2.ryy	.
2G	.	2g	.	4ryy	4ryy	.	.
.	.	.	.	4ryy	4ryy	.	.
=63	=63	=63	=63	=63	=63	=63	=63
*M5/4	*	*M5/4	*	*M5/4	*	*M5/4	*
!	!	!	!	!LO:TX:b:i:t=sempre cresc. poco a poco	!	!LO:TX:b:i:t=poco a poco cresc.	!
4D 4d	.	4d 4dd	.	8ryy	.	2ryy	.
.	.	.	.	4ryy	.	.	.
4E 4d	4ryy	4e 4dd	4ryy	.	.	.	.
.	.	.	.	8ryy	.	.	.
4G 4d	.	4g 4dd	.	4ryy	.	2.ryy	.
(8DL 8c	4ryy	(8dL 8cc	4ryy	8ryy	.	.	.
8AAJ)	.	8aJ)	.	8ryy	.	.	.
4G 4d	.	4g 4dd	.	4ryy	.	.	.
=64	=64	=64	=64	=64	=64	=64	=64
*M3/4	*	*M3/4	*	*M3/4	*	*M3/4	*
(8GG^L 8A 8e	.	(8G^>L 8a 8ee	.	8ryy	4ryy	2.ryy	4ryy
8cJ)	.	8ccJ)	.	4ryy	.	.	.
2G^ 2d	.	2g^ 2dd	.	.	.	.	.
.	.	.	.	8ryy	.	.	.
.	.	.	.	8ryy	.	.	.
.	.	.	.	8ryy	4ryy	.	.
!!LO:REH:t=65
=65	=65	=65	=65	=65	=65	=65	=65
!	!	!	!	!	!	!	!LO:DY:t= %s espr. molto
4AA^ 4E 4c	4ryy	4A^> 4e 4cc	4ryy	8ryy	4ryy	4ryy	4ryy
.	.	.	.	8ryy	.	.	.
2GG^ [2D [2B	4ryy	2B^> [2g [2dd	4ryy	8ryy	.	4ryy	.
.	.	.	.	4ryy	.	.	.
.	.	.	.	.	.	4ryy	.
.	.	.	.	8ryy	.	.	.
=66	=66	=66	=66	=66	=66	=66	=66
2.D_ 2.B_	.	2.g_ 2.dd_	.	4ryy	.	4ryy	.
.	.	.	.	8ryy	.	8ryy	.
.	.	.	.	8ryy	.	8ryy	.
.	.	.	.	4ryy	4ryy	4ryy	.
=67	=67	=67	=67	=67	=67	=67	=67
2D] 2B]	.	2g] 2dd]	.	8ryy	4ryy	8ryy	.
.	.	.	.	8ryy	.	8ryy	.
.	.	.	.	8ryy	.	4ryy	4ryy
.	4ryy	.	4ryy	8ryy	.	.	.
[4AA^ [4E [4c	4ryy	4A^> [4e [4cc	4ryy	8ryy	.	4ryy	4ryy
.	.	.	.	8ryy	.	.	.
=68	=68	=68	=68	=68	=68	=68	=68
4AA] 4E] 4c]	.	4e] 4cc]	.	8ryy	.	4ryy	.
.	.	.	.	8ryy	.	.	.
2GG^ [2D [2B	4ryy	2B^> [2g [2dd	4ryy	8ryy	.	4ryy	.
.	.	.	.	8ryy	.	.	.
.	.	.	.	8ryy	.	8ryy	.
.	.	.	.	8ryy	.	8ryy	.
=69	=69	=69	=69	=69	=69	=69	=69
2.D_ 2.B_	.	2.g_ 2.dd_	.	8ryy	.	4ryy	.
.	.	.	.	8ryy	.	.	.
.	.	.	.	8ryy	.	8ryy	.
.	4ryy	.	4ryy	8ryy	4ryy	8ryy	4ryy
.	.	.	.	8ryy	.	8ryy	.
.	4ryy	.	4ryy	8ryy	4ryy	8ryy	4ryy
=	=	=	=	=	=	=	=
*-	*-	*-	*-	*-	*-	*-	*-
!!!system-decoration: [(s1,s2,s3,s4)]
!!!RDF**kern: > = above
!!!RDF**kern: < = below
!!!EED: Claudio de Freitas
!!!EEV: 2021/09/28
!!!EED2: Daniel Wright
!!!EEV2: 2022/02/16
